svg/blobs-icons/no-decorations/mixing-bowl.svg

<svg xmlns="http://www.w3.org/2000/svg" xmlns:xlink="http://www.w3.org/1999/xlink" preserveAspectRatio="xMidYMid" width="216" height="179" viewBox="0 0 216 179"><defs><style>.cls-3{fill:#2476ff}.cls-4{fill:#060606;opacity:.35}.cls-5{fill:#fbb713}.cls-6{fill:#ededed}.cls-7{fill:#060606;opacity:.25}</style></defs><g id="group-33svg"><path d="M137.619 88.651s-17.075-17.075-17.075-17.075S192.128-.005 192.128-.005 199.017 6.883 199.017 6.883s-61.398 81.768-61.398 81.768z" id="path-1" class="cls-3" fill-rule="evenodd"/><path d="M192.128-.005S187.215 4.907 187.215 4.907 189.19 6.883 189.19 6.883s-57.184 76.156-57.184 76.156 5.613 5.612 5.613 5.612S199.017 6.883 199.017 6.883 192.128-.005 192.128-.005z" id="path-2" class="cls-4" fill-rule="evenodd"/><path d="M107.774 168.493c59.519.0 107.77-48.25 107.77-107.766H.004c0 59.516 48.251 107.766 107.77 107.766z" id="path-3" class="cls-5" fill-rule="evenodd"/><path d="M61.675 142.562C61.112 142.562 60.54 142.43 60.007 142.149 38.9 131.052 23.084 112.534 15.471 90.009 14.837 88.13 15.844 86.092 17.724 85.456 19.613 84.815 21.644 85.83 22.277 87.708c7.02 20.771 21.607 37.846 41.073 48.081C65.106 136.714 65.782 138.885 64.859 140.641 64.215 141.863 62.968 142.562 61.675 142.562z" id="path-4" class="cls-6" fill-rule="evenodd"/><path d="M185.598 60.727C180.631 115.636 134.499 158.666 78.294 158.666 71.804 158.666 65.459 158.06 59.285 156.962 73.863 164.322 90.327 168.493 107.774 168.493c59.52.0 107.77-48.25 107.77-107.766H185.598z" id="path-5" class="cls-7" fill-rule="evenodd"/><path d="M156.739 178.553s-97.931.0-97.931.0c-1.556.0-2.817-1.261-2.817-2.81700000000001V161.124C55.991 159.568 57.252 158.306 58.808 158.306h97.931C158.296 158.306 159.558 159.568 159.558 161.124v14.612C159.558 177.292 158.296 178.553 156.739 178.553z" id="path-6" class="cls-5" fill-rule="evenodd"/><path d="M65.172 177.897s84.035.0 84.035.0C154.6 177.897 158.973 173.525 158.973 168.133H55.406C55.406 173.525 59.778 177.897 65.172 177.897z" id="path-7" class="cls-7" fill-rule="evenodd"/></g></svg>

<svg xmlns="http://www.w3.org/2000/svg" xmlns:xlink="http://www.w3.org/1999/xlink" preserveAspectRatio="xMidYMid" width="216" height="179" viewBox="0 0 216 179">
  <defs>
    <style>

      .cls-3 {
        fill: #2476ff;
      }

      .cls-4 {
        fill: #060606;
        opacity: 0.35;
      }

      .cls-5 {
        fill: #fbb713;
      }

      .cls-6 {
        fill: #ededed;
      }

      .cls-7 {
        fill: #060606;
        opacity: 0.25;
      }
    </style>
  </defs>
  <g id="group-33svg">
    <path d="M137.619,88.651 C137.619,88.651 120.544,71.576 120.544,71.576 C120.544,71.576 192.128,-0.005 192.128,-0.005 C192.128,-0.005 199.017,6.883 199.017,6.883 C199.017,6.883 137.619,88.651 137.619,88.651 Z" id="path-1" class="cls-3" fill-rule="evenodd"/>
    <path d="M192.128,-0.005 C192.128,-0.005 187.215,4.907 187.215,4.907 C187.215,4.907 189.190,6.883 189.190,6.883 C189.190,6.883 132.006,83.039 132.006,83.039 C132.006,83.039 137.619,88.651 137.619,88.651 C137.619,88.651 199.017,6.883 199.017,6.883 C199.017,6.883 192.128,-0.005 192.128,-0.005 Z" id="path-2" class="cls-4" fill-rule="evenodd"/>
    <path d="M107.774,168.493 C167.293,168.493 215.544,120.243 215.544,60.727 C215.544,60.727 0.004,60.727 0.004,60.727 C0.004,120.243 48.255,168.493 107.774,168.493 Z" id="path-3" class="cls-5" fill-rule="evenodd"/>
    <path d="M61.675,142.562 C61.112,142.562 60.540,142.430 60.007,142.149 C38.900,131.052 23.084,112.534 15.471,90.009 C14.837,88.130 15.844,86.092 17.724,85.456 C19.613,84.815 21.644,85.830 22.277,87.708 C29.297,108.479 43.884,125.554 63.350,135.789 C65.106,136.714 65.782,138.885 64.859,140.641 C64.215,141.863 62.968,142.562 61.675,142.562 Z" id="path-4" class="cls-6" fill-rule="evenodd"/>
    <path d="M185.598,60.727 C180.631,115.636 134.499,158.666 78.294,158.666 C71.804,158.666 65.459,158.060 59.285,156.962 C73.863,164.322 90.327,168.493 107.774,168.493 C167.294,168.493 215.544,120.243 215.544,60.727 C215.544,60.727 185.598,60.727 185.598,60.727 Z" id="path-5" class="cls-7" fill-rule="evenodd"/>
    <path d="M156.739,178.553 C156.739,178.553 58.808,178.553 58.808,178.553 C57.252,178.553 55.991,177.292 55.991,175.736 C55.991,175.736 55.991,161.124 55.991,161.124 C55.991,159.568 57.252,158.306 58.808,158.306 C58.808,158.306 156.739,158.306 156.739,158.306 C158.296,158.306 159.558,159.568 159.558,161.124 C159.558,161.124 159.558,175.736 159.558,175.736 C159.558,177.292 158.296,178.553 156.739,178.553 Z" id="path-6" class="cls-5" fill-rule="evenodd"/>
    <path d="M65.172,177.897 C65.172,177.897 149.207,177.897 149.207,177.897 C154.600,177.897 158.973,173.525 158.973,168.133 C158.973,168.133 55.406,168.133 55.406,168.133 C55.406,173.525 59.778,177.897 65.172,177.897 Z" id="path-7" class="cls-7" fill-rule="evenodd"/>
  </g>
</svg>
